Newaita-dark/apps/22/utilities-x-terminal.svg

<svg height="22" viewBox="0 0 22 22" width="22" xmlns="http://www.w3.org/2000/svg" xmlns:xlink="http://www.w3.org/1999/xlink"><linearGradient id="a" gradientUnits="userSpaceOnUse" x1="10.4603136" x2="10.4603136" y1="19.27333515" y2="20.18292842919"><stop offset="0" stop-opacity=".27451"/><stop offset="1" stop-opacity="0"/></linearGradient><linearGradient id="b"><stop offset="0" stop-opacity=".313726"/><stop offset=".222222" stop-opacity=".27451"/><stop offset="1" stop-opacity="0"/></linearGradient><radialGradient id="c" cx="450.908936" cy="189.579361" gradientTransform="matrix(.00000012 -.0537161 -.0966889 -.00000007 36.749411 43.721791)" gradientUnits="userSpaceOnUse" r="21.166656" xlink:href="#b"/><radialGradient id="d" cx="450.908936" cy="189.579361" gradientTransform="matrix(-.00000012 .0537161 .0966889 .00000007 -14.919199 -5.175142)" gradientUnits="userSpaceOnUse" r="21.166656" xlink:href="#b"/><radialGradient id="e" cx="450.908936" cy="189.579361" gradientTransform="matrix(-.00000012 -.0537161 .0966889 -.00000007 -14.919199 43.721791)" gradientUnits="userSpaceOnUse" r="21.166656" xlink:href="#b"/><radialGradient id="f" cx="450.908936" cy="189.579361" gradientTransform="matrix(.00000012 .0537161 -.0966889 .00000007 36.74941 -5.175142)" gradientUnits="userSpaceOnUse" r="21.166656" xlink:href="#b"/><linearGradient id="g" gradientTransform="matrix(.0495506 0 0 .131056 -3.375079 21.433838)" gradientUnits="userSpaceOnUse" x1="306.752655" x2="305.954529" y1="-16.485477" y2="-141.414581"><stop offset="0" stop-color="#616161"/><stop offset="1" stop-color="#757575"/></linearGradient><linearGradient id="h" gradientUnits="userSpaceOnUse" x1="10.9151166" x2="10.9151166" y1="19.27333515" y2="2.90066025"><stop offset="0" stop-color="#424242"/><stop offset="1" stop-color="#616161"/></linearGradient><linearGradient id="i"><stop offset="0" stop-color="#9ccc65"/><stop offset="1" stop-color="#aed581"/></linearGradient><linearGradient id="j" gradientUnits="userSpaceOnUse" x1="8.64113374581" x2="8.64113374581" xlink:href="#i" y1="19.27333515" y2="2.90066025"/><linearGradient id="k" gradientUnits="userSpaceOnUse" x1="254" x2="254" xlink:href="#i" y1="212.333328" y2="-126.333344"/><path d="m3.183594 19.324219h15.464844v.859375h-15.464844zm0 0" fill="url(#a)"/><path d="m18.648438 19.273438h1.816406v-.910157h-1.816406zm0 0" fill="url(#c)"/><path d="m3.183594 19.273438h-1.820313v.910156h1.820313zm0 0" fill="url(#d)"/><path d="m3.183594 19.273438h-1.820313v-.910157h1.820313zm0 0" fill="url(#e)"/><path d="m18.648438 19.273438h1.816406v.910156h-1.816406zm0 0" fill="url(#f)"/><path d="m2.273438 2.902344h17.28125c.503906 0 .910156.382812.910156.855468v14.65625c0 .476563-.40625.859376-.910156.859376h-17.28125c-.5 0-.910157-.382813-.910157-.859376v-14.65625c0-.472656.410157-.855468.910157-.855468zm0 0" fill="url(#g)"/><path d="m2.730469 3.808594h16.371093c.25 0 .453126.207031.453126.457031v13.644531c0 .25-.203126.453125-.453126.453125h-16.371093c-.253907 0-.457031-.203125-.457031-.453125v-13.644531c0-.25.203124-.457031.457031-.457031zm0 0" fill="url(#h)"/><path d="m2.273438 2.902344c-.503907 0-.910157.382812-.910157.855468v.230469c0-.476562.40625-.859375.910157-.859375h17.28125c.503906 0 .910156.382813.910156.859375v-.230469c0-.472656-.40625-.855468-.910156-.855468zm0 0" fill="#fff" fill-opacity=".313726"/><path d="m2.273438 19.28125c-.503907 0-.910157-.382812-.910157-.859375v-.230469c0 .476563.40625.859375.910157.859375h17.28125c.503906 0 .910156-.382812.910156-.859375v.230469c0 .476563-.40625.859375-.910156.859375zm0 0" fill-opacity=".235294"/><path d="m52.904039-147.460995h402.143415c11.726153 0 21.179796 8.90824 21.179796 19.90719v341.058339c0 11.08985-9.453643 19.998091-21.179796 19.998091h-402.143415c-11.635253 0-21.179796-8.908241-21.179796-19.998091v-341.058339c0-10.99895 9.544543-19.90719 21.179796-19.90719zm0 0" fill="none" stroke="#212121" stroke-linecap="round" stroke-width="3" transform="matrix(.0429729 0 0 .0429729 0 9.239163)"/><path d="m4.359375 5.519531c-.179687-.179687-.464844-.179687-.644531 0-.175782.179688-.175782.464844 0 .644531l1.289062 1.285157-1.289062 1.285156c-.175782.179687-.175782.464844 0 .644531.179687.175782.464844.175782.644531 0l1.609375-1.609375c.011719-.011719.019531-.023437.03125-.035156.144531-.179687.132812-.441406-.03125-.605469zm0 0" fill="url(#j)"/><path d="m4.039062 5.386719c-.117187 0-.234374.042969-.324218.132812-.117188.117188-.15625.28125-.117188.433594.019532-.078125.058594-.148437.117188-.210937.179687-.175782.464844-.175782.644531 0l1.609375 1.609374c.058594.058594.097656.132813.117188.210938.039062-.152344 0-.316406-.117188-.433594l-1.609375-1.609375c-.089844-.089843-.207031-.132812-.320313-.132812zm.851563 2.175781-1.175781 1.171875c-.117188.117187-.15625.285156-.117188.433594.019532-.074219.058594-.148438.117188-.207031l1.289062-1.289063zm0 0" fill="#fff" fill-opacity=".392157"/><path d="m3.597656 5.953125c-.039062.152344 0 .316406.117188.4375l1.175781 1.171875.113281-.113281-1.289062-1.285157c-.058594-.0625-.097656-.132812-.117188-.210937zm2.488282 1.609375c-.015626.0625-.042969.121094-.085938.171875-.011719.011719-.019531.023437-.03125.035156l-1.609375 1.609375c-.179687.175782-.464844.175782-.644531 0-.058594-.058594-.097656-.132812-.117188-.207031-.039062.148437 0 .316406.117188.433594.179687.179687.464844.179687.644531 0l1.609375-1.609375c.011719-.007813.019531-.019532.03125-.03125.09375-.117188.121094-.265625.085938-.402344zm0 0" fill-opacity=".235294"/><path d="m101.444858-86.55772c-4.181419-4.181419-10.817149-4.181419-14.998568 0-4.090518 4.181419-4.090518 10.817149 0 14.998568l29.997136 29.906235-29.997136 29.906235c-4.090518 4.181418-4.090518 10.817148 0 14.998567 4.181419 4.090519 10.817149 4.090519 14.998568 0l37.450969-37.450969c.272701-.272701.454502-.545402.727203-.818104 3.363315-4.181418 3.090614-10.271746-.727203-14.089563zm0 0" fill="none" stroke="#212121" stroke-linecap="round" stroke-width="3" transform="matrix(.0429729 0 0 .0429729 0 9.239163)"/><path d="m2.730469 3.878906c-.253907 0-.457031.199219-.457031.453125v.171875c0-.253906.203124-.457031.457031-.457031h16.371093c.25 0 .453126.203125.453126.457031v-.171875c0-.253906-.203126-.453125-.453126-.453125zm0 0" fill-opacity=".235294"/><path d="m2.730469 18.589844c-.253907 0-.457031-.203125-.457031-.457032v-.167968c0 .25.203124.453125.457031.453125h16.371093c.25 0 .453126-.203125.453126-.453125v.167968c0 .253907-.203126.457032-.453126.457032zm0 0" fill="#fff" fill-opacity=".392157"/><path d="m63.539387-126.3721h380.96362c5.817626 0 10.544447 4.817722 10.544447 10.635348v317.515133c0 5.817627-4.726821 10.544448-10.544447 10.544448h-380.96362c-5.908527 0-10.635348-4.726821-10.635348-10.544448v-317.515133c0-5.817626 4.726821-10.635348 10.635348-10.635348zm0 0" fill="none" stroke="url(#k)" stroke-linecap="round" stroke-linejoin="round" stroke-width="3" transform="matrix(.0429729 0 0 .0429729 0 9.239163)"/></svg>

<?xml version="1.0" encoding="UTF-8"?>
<svg xmlns="http://www.w3.org/2000/svg" xmlns:xlink="http://www.w3.org/1999/xlink" width="22px" height="22px" viewBox="0 0 22 22" version="1.1">
<defs>
<linearGradient id="linear0" gradientUnits="userSpaceOnUse" x1="254" y1="233.5" x2="254" y2="254.666672" gradientTransform="matrix(0.0429729,0,0,0.0429729,-0.454803,9.239163)">
<stop offset="0" style="stop-color:rgb(0%,0%,0%);stop-opacity:0.27451;"/>
<stop offset="1" style="stop-color:rgb(0%,0%,0%);stop-opacity:0;"/>
</linearGradient>
<radialGradient id="radial0" gradientUnits="userSpaceOnUse" cx="450.908936" cy="189.579361" fx="450.908936" fy="189.579361" r="21.166656" gradientTransform="matrix(0.000000119742,-0.0537161,-0.0966889,-0.0000000698078,36.749411,43.721791)">
<stop offset="0" style="stop-color:rgb(0%,0%,0%);stop-opacity:0.313726;"/>
<stop offset="0.222222" style="stop-color:rgb(0%,0%,0%);stop-opacity:0.27451;"/>
<stop offset="1" style="stop-color:rgb(0%,0%,0%);stop-opacity:0;"/>
</radialGradient>
<radialGradient id="radial1" gradientUnits="userSpaceOnUse" cx="450.908936" cy="189.579361" fx="450.908936" fy="189.579361" r="21.166656" gradientTransform="matrix(-0.000000119742,0.0537161,0.0966889,0.0000000698078,-14.919199,-5.175142)">
<stop offset="0" style="stop-color:rgb(0%,0%,0%);stop-opacity:0.313726;"/>
<stop offset="0.222222" style="stop-color:rgb(0%,0%,0%);stop-opacity:0.27451;"/>
<stop offset="1" style="stop-color:rgb(0%,0%,0%);stop-opacity:0;"/>
</radialGradient>
<radialGradient id="radial2" gradientUnits="userSpaceOnUse" cx="450.908936" cy="189.579361" fx="450.908936" fy="189.579361" r="21.166656" gradientTransform="matrix(-0.000000119742,-0.0537161,0.0966889,-0.0000000698078,-14.919199,43.721791)">
<stop offset="0" style="stop-color:rgb(0%,0%,0%);stop-opacity:0.313726;"/>
<stop offset="0.222222" style="stop-color:rgb(0%,0%,0%);stop-opacity:0.27451;"/>
<stop offset="1" style="stop-color:rgb(0%,0%,0%);stop-opacity:0;"/>
</radialGradient>
<radialGradient id="radial3" gradientUnits="userSpaceOnUse" cx="450.908936" cy="189.579361" fx="450.908936" fy="189.579361" r="21.166656" gradientTransform="matrix(0.000000119742,0.0537161,-0.0966889,0.0000000698078,36.74941,-5.175142)">
<stop offset="0" style="stop-color:rgb(0%,0%,0%);stop-opacity:0.313726;"/>
<stop offset="0.222222" style="stop-color:rgb(0%,0%,0%);stop-opacity:0.27451;"/>
<stop offset="1" style="stop-color:rgb(0%,0%,0%);stop-opacity:0;"/>
</radialGradient>
<linearGradient id="linear1" gradientUnits="userSpaceOnUse" x1="306.752655" y1="-16.485477" x2="305.954529" y2="-141.414581" gradientTransform="matrix(0.0495506,0,0,0.131056,-3.375079,21.433838)">
<stop offset="0" style="stop-color:rgb(38.039216%,38.039216%,38.039216%);stop-opacity:1;"/>
<stop offset="1" style="stop-color:rgb(45.882353%,45.882353%,45.882353%);stop-opacity:1;"/>
</linearGradient>
<linearGradient id="linear2" gradientUnits="userSpaceOnUse" x1="254" y1="233.5" x2="254" y2="-147.5" gradientTransform="matrix(0.0429729,0,0,0.0429729,0,9.239163)">
<stop offset="0" style="stop-color:rgb(25.882354%,25.882354%,25.882354%);stop-opacity:1;"/>
<stop offset="1" style="stop-color:rgb(38.039216%,38.039216%,38.039216%);stop-opacity:1;"/>
</linearGradient>
<linearGradient id="linear3" gradientUnits="userSpaceOnUse" x1="201.083328" y1="233.5" x2="201.083328" y2="-147.5" gradientTransform="matrix(0.0429729,0,0,0.0429729,0,9.239163)">
<stop offset="0" style="stop-color:rgb(61.176473%,80.000001%,39.607844%);stop-opacity:1;"/>
<stop offset="1" style="stop-color:rgb(68.235296%,83.529413%,50.588238%);stop-opacity:1;"/>
</linearGradient>
<linearGradient id="linear4" gradientUnits="userSpaceOnUse" x1="254" y1="212.333328" x2="254" y2="-126.333344" >
<stop offset="0" style="stop-color:rgb(61.176473%,80.000001%,39.607844%);stop-opacity:1;"/>
<stop offset="1" style="stop-color:rgb(68.235296%,83.529413%,50.588238%);stop-opacity:1;"/>
</linearGradient>
</defs>
<g id="surface1">
<path style=" stroke:none;fill-rule:nonzero;fill:url(#linear0);" d="M 3.183594 19.324219 L 18.648438 19.324219 L 18.648438 20.183594 L 3.183594 20.183594 Z M 3.183594 19.324219 "/>
<path style=" stroke:none;fill-rule:nonzero;fill:url(#radial0);" d="M 18.648438 19.273438 L 20.464844 19.273438 L 20.464844 18.363281 L 18.648438 18.363281 Z M 18.648438 19.273438 "/>
<path style=" stroke:none;fill-rule:nonzero;fill:url(#radial1);" d="M 3.183594 19.273438 L 1.363281 19.273438 L 1.363281 20.183594 L 3.183594 20.183594 Z M 3.183594 19.273438 "/>
<path style=" stroke:none;fill-rule:nonzero;fill:url(#radial2);" d="M 3.183594 19.273438 L 1.363281 19.273438 L 1.363281 18.363281 L 3.183594 18.363281 Z M 3.183594 19.273438 "/>
<path style=" stroke:none;fill-rule:nonzero;fill:url(#radial3);" d="M 18.648438 19.273438 L 20.464844 19.273438 L 20.464844 20.183594 L 18.648438 20.183594 Z M 18.648438 19.273438 "/>
<path style=" stroke:none;fill-rule:nonzero;fill:url(#linear1);" d="M 2.273438 2.902344 L 19.554688 2.902344 C 20.058594 2.902344 20.464844 3.285156 20.464844 3.757812 L 20.464844 18.414062 C 20.464844 18.890625 20.058594 19.273438 19.554688 19.273438 L 2.273438 19.273438 C 1.773438 19.273438 1.363281 18.890625 1.363281 18.414062 L 1.363281 3.757812 C 1.363281 3.285156 1.773438 2.902344 2.273438 2.902344 Z M 2.273438 2.902344 "/>
<path style=" stroke:none;fill-rule:nonzero;fill:url(#linear2);" d="M 2.730469 3.808594 L 19.101562 3.808594 C 19.351562 3.808594 19.554688 4.015625 19.554688 4.265625 L 19.554688 17.910156 C 19.554688 18.160156 19.351562 18.363281 19.101562 18.363281 L 2.730469 18.363281 C 2.476562 18.363281 2.273438 18.160156 2.273438 17.910156 L 2.273438 4.265625 C 2.273438 4.015625 2.476562 3.808594 2.730469 3.808594 Z M 2.730469 3.808594 "/>
<path style=" stroke:none;fill-rule:nonzero;fill:rgb(100%,100%,100%);fill-opacity:0.313726;" d="M 2.273438 2.902344 C 1.769531 2.902344 1.363281 3.285156 1.363281 3.757812 L 1.363281 3.988281 C 1.363281 3.511719 1.769531 3.128906 2.273438 3.128906 L 19.554688 3.128906 C 20.058594 3.128906 20.464844 3.511719 20.464844 3.988281 L 20.464844 3.757812 C 20.464844 3.285156 20.058594 2.902344 19.554688 2.902344 Z M 2.273438 2.902344 "/>
<path style=" stroke:none;fill-rule:nonzero;fill:rgb(0%,0%,0%);fill-opacity:0.235294;" d="M 2.273438 19.28125 C 1.769531 19.28125 1.363281 18.898438 1.363281 18.421875 L 1.363281 18.191406 C 1.363281 18.667969 1.769531 19.050781 2.273438 19.050781 L 19.554688 19.050781 C 20.058594 19.050781 20.464844 18.667969 20.464844 18.191406 L 20.464844 18.421875 C 20.464844 18.898438 20.058594 19.28125 19.554688 19.28125 Z M 2.273438 19.28125 "/>
<path style="fill:none;stroke-width:3;stroke-linecap:round;stroke-linejoin:miter;stroke:rgb(12.941177%,12.941177%,12.941177%);stroke-opacity:1;stroke-miterlimit:4;" d="M 52.904039 -147.460995 L 455.047454 -147.460995 C 466.773607 -147.460995 476.22725 -138.552755 476.22725 -127.553805 L 476.22725 213.504534 C 476.22725 224.594384 466.773607 233.502625 455.047454 233.502625 L 52.904039 233.502625 C 41.268786 233.502625 31.724243 224.594384 31.724243 213.504534 L 31.724243 -127.553805 C 31.724243 -138.552755 41.268786 -147.460995 52.904039 -147.460995 Z M 52.904039 -147.460995 " transform="matrix(0.0429729,0,0,0.0429729,0,9.239163)"/>
<path style=" stroke:none;fill-rule:nonzero;fill:url(#linear3);" d="M 4.359375 5.519531 C 4.179688 5.339844 3.894531 5.339844 3.714844 5.519531 C 3.539062 5.699219 3.539062 5.984375 3.714844 6.164062 L 5.003906 7.449219 L 3.714844 8.734375 C 3.539062 8.914062 3.539062 9.199219 3.714844 9.378906 C 3.894531 9.554688 4.179688 9.554688 4.359375 9.378906 L 5.96875 7.769531 C 5.980469 7.757812 5.988281 7.746094 6 7.734375 C 6.144531 7.554688 6.132812 7.292969 5.96875 7.128906 Z M 4.359375 5.519531 "/>
<path style=" stroke:none;fill-rule:nonzero;fill:rgb(100%,100%,100%);fill-opacity:0.392157;" d="M 4.039062 5.386719 C 3.921875 5.386719 3.804688 5.429688 3.714844 5.519531 C 3.597656 5.636719 3.558594 5.800781 3.597656 5.953125 C 3.617188 5.875 3.65625 5.804688 3.714844 5.742188 C 3.894531 5.566406 4.179688 5.566406 4.359375 5.742188 L 5.96875 7.351562 C 6.027344 7.410156 6.066406 7.484375 6.085938 7.5625 C 6.125 7.410156 6.085938 7.246094 5.96875 7.128906 L 4.359375 5.519531 C 4.269531 5.429688 4.152344 5.386719 4.039062 5.386719 Z M 4.890625 7.5625 L 3.714844 8.734375 C 3.597656 8.851562 3.558594 9.019531 3.597656 9.167969 C 3.617188 9.09375 3.65625 9.019531 3.714844 8.960938 L 5.003906 7.671875 Z M 4.890625 7.5625 "/>
<path style=" stroke:none;fill-rule:nonzero;fill:rgb(0%,0%,0%);fill-opacity:0.235294;" d="M 3.597656 5.953125 C 3.558594 6.105469 3.597656 6.269531 3.714844 6.390625 L 4.890625 7.5625 L 5.003906 7.449219 L 3.714844 6.164062 C 3.65625 6.101562 3.617188 6.03125 3.597656 5.953125 Z M 6.085938 7.5625 C 6.070312 7.625 6.042969 7.683594 6 7.734375 C 5.988281 7.746094 5.980469 7.757812 5.96875 7.769531 L 4.359375 9.378906 C 4.179688 9.554688 3.894531 9.554688 3.714844 9.378906 C 3.65625 9.320312 3.617188 9.246094 3.597656 9.171875 C 3.558594 9.320312 3.597656 9.488281 3.714844 9.605469 C 3.894531 9.785156 4.179688 9.785156 4.359375 9.605469 L 5.96875 7.996094 C 5.980469 7.988281 5.988281 7.976562 6 7.964844 C 6.09375 7.847656 6.121094 7.699219 6.085938 7.5625 Z M 6.085938 7.5625 "/>
<path style="fill:none;stroke-width:3;stroke-linecap:round;stroke-linejoin:miter;stroke:rgb(12.941177%,12.941177%,12.941177%);stroke-opacity:1;stroke-miterlimit:4;" d="M 101.444858 -86.55772 C 97.263439 -90.739139 90.627709 -90.739139 86.44629 -86.55772 C 82.355772 -82.376301 82.355772 -75.740571 86.44629 -71.559152 L 116.443426 -41.652917 L 86.44629 -11.746682 C 82.355772 -7.565264 82.355772 -0.929534 86.44629 3.251885 C 90.627709 7.342404 97.263439 7.342404 101.444858 3.251885 L 138.895827 -34.199084 C 139.168528 -34.471785 139.350329 -34.744486 139.62303 -35.017188 C 142.986345 -39.198606 142.713644 -45.288934 138.895827 -49.106751 Z M 101.444858 -86.55772 " transform="matrix(0.0429729,0,0,0.0429729,0,9.239163)"/>
<path style=" stroke:none;fill-rule:nonzero;fill:rgb(0%,0%,0%);fill-opacity:0.235294;" d="M 2.730469 3.878906 C 2.476562 3.878906 2.273438 4.078125 2.273438 4.332031 L 2.273438 4.503906 C 2.273438 4.25 2.476562 4.046875 2.730469 4.046875 L 19.101562 4.046875 C 19.351562 4.046875 19.554688 4.25 19.554688 4.503906 L 19.554688 4.332031 C 19.554688 4.078125 19.351562 3.878906 19.101562 3.878906 Z M 2.730469 3.878906 "/>
<path style=" stroke:none;fill-rule:nonzero;fill:rgb(100%,100%,100%);fill-opacity:0.392157;" d="M 2.730469 18.589844 C 2.476562 18.589844 2.273438 18.386719 2.273438 18.132812 L 2.273438 17.964844 C 2.273438 18.214844 2.476562 18.417969 2.730469 18.417969 L 19.101562 18.417969 C 19.351562 18.417969 19.554688 18.214844 19.554688 17.964844 L 19.554688 18.132812 C 19.554688 18.386719 19.351562 18.589844 19.101562 18.589844 Z M 2.730469 18.589844 "/>
<path style="fill:none;stroke-width:3;stroke-linecap:round;stroke-linejoin:round;stroke:url(#linear4);stroke-miterlimit:4;" d="M 63.539387 -126.3721 L 444.503007 -126.3721 C 450.320633 -126.3721 455.047454 -121.554378 455.047454 -115.736752 L 455.047454 201.778381 C 455.047454 207.596008 450.320633 212.322829 444.503007 212.322829 L 63.539387 212.322829 C 57.63086 212.322829 52.904039 207.596008 52.904039 201.778381 L 52.904039 -115.736752 C 52.904039 -121.554378 57.63086 -126.3721 63.539387 -126.3721 Z M 63.539387 -126.3721 " transform="matrix(0.0429729,0,0,0.0429729,0,9.239163)"/>
</g>
</svg>
